!!!OTL: IETZ GANG I ANS BRUENNELE
!!!ARE: Europa, Mitteleuropa, Deutschland, Schwaben, Remstal, Schorndorf
!!!SCT: E0203
!!!YEM: Copyright 1995, estate of Helmut Schaffrath.
**kern
*ICvox
*Ivox
*M3/4
*k[f#]
*G:
{4d
=1
4.g
8f#
8g
8a
=2
4.b
8cc
4b}
=3
{4a
4g
4a
=4
4g
4r}
{4g
=5
4.b
8a
8b
8cc
=6
4.dd
8ee
4dd}
=7
{4cc
4b
4cc
=8
2b
4r}
=9
{2.dd
=10
8dd
8cc
4cc
4cc
=11
4b
8dd
8b
4b}
=12
{8b
8a
4a
4a
=13
8b
4.dd
4r}
=14
{2.dd
=15
8dd
8cc
4cc
4cc
=16
4b
8dd
8b
4b}
=17
{8b
8a
4a
4a
=18
2g}
==
!!!AGN: erzaehlendes Volks - Lied, Todes - Ahnung; betrogene Liebe
!!!ONB: ESAC (Essen Associative Code) Database: ERK1
!!!AMT: simple triple
!!!AIN: vox
!!!EED: Helmut Schaffrath
!!!EEV: 1.0
*-
